Catalina-light/actions/16/view-readermode.svg

<svg xmlns="http://www.w3.org/2000/svg" width="16" height="16" viewBox="0 0 16 16">
 <defs>
  <style id="current-color-scheme" type="text/css">
   .ColorScheme-Text { color:#5c616c; } .ColorScheme-Highlight { color:#5294e2; }
  </style>
 </defs>
 <path style="fill:currentColor" class="ColorScheme-Text" d="M 10.029297 1 C 9.8819169 1.003 9.7293425 1.0150094 9.5703125 1.0371094 C 9.0034025 1.1159094 8.3186875 1.3914781 7.5546875 1.7988281 C 6.0140875 0.94567812 4.8137406 0.89374688 3.8066406 1.1542969 C 2.7378406 1.4308069 1.868925 1.8823869 0.515625 1.8417969 L 0 1.8261719 L 0 16 L 15 16 L 15 1.84375 L 14.482422 1.8613281 C 12.965822 1.9165281 12.211922 1.464645 11.232422 1.171875 C 10.865122 1.062075 10.471417 0.99098 10.029297 1 z M 5.21875 1.9941406 C 5.71774 2.0327406 6.2822 2.213495 7 2.609375 L 7 11.333984 C 5.8956 10.692224 4.7902063 10.643969 3.8164062 10.886719 C 3.1632062 11.049539 2.5692 11.237652 2 11.388672 L 2 2.6621094 C 2.8021 2.5141794 3.4740875 2.2830225 4.0546875 2.1328125 C 4.2857975 2.0730125 4.5091312 2.02398 4.7382812 2 C 4.8933012 1.9838 5.05242 1.9813406 5.21875 1.9941406 z M 10.337891 2.0019531 C 10.543791 2.0284531 10.742569 2.079065 10.949219 2.140625 C 11.483649 2.300375 12.1426 2.5531719 13 2.7011719 L 13 11.384766 C 12.43016 11.232366 11.837453 11.042719 11.189453 10.880859 C 10.209613 10.636099 9.0981 10.696078 8 11.367188 L 8 2.6679688 C 8.70328 2.2824487 9.2453875 2.0716725 9.6796875 2.0078125 C 9.9189475 1.9726125 10.131991 1.9756531 10.337891 2.0019531 z"/>
</svg>

<svg width="16" height="16" viewBox="0 0 16 16" xmlns="http://www.w3.org/2000/svg">
<defs>
<style id="current-color-scheme" type="text/css">.ColorScheme-Text { color:#5c616c; } .ColorScheme-Highlight { color:#5294e2; }</style>
</defs>
<path class="ColorScheme-Text" d="m10.029 1c-0.14738 3e-3 -0.29995 0.015009-0.45898 0.037109-0.56691 0.0788-1.2516 0.35437-2.0156 0.76172-1.5406-0.85315-2.7409-0.90508-3.748-0.64453-1.0688 0.27651-1.9377 0.72809-3.291 0.6875l-0.51562-0.015625v14.174h15v-14.156l-0.51758 0.017578c-1.5166 0.0552-2.2705-0.39668-3.25-0.68945-0.3673-0.1098-0.761-0.1809-1.2031-0.17188zm-4.8105 0.99414c0.49899 0.0386 1.0634 0.21935 1.7812 0.61523v8.7246c-1.1044-0.64176-2.2098-0.69002-3.1836-0.44726-0.6532 0.16282-1.2472 0.35093-1.8164 0.50195v-8.7266c0.8021-0.14793 1.4741-0.37909 2.0547-0.5293 0.23111-0.0598 0.45444-0.10883 0.68359-0.13281 0.15502-0.0162 0.31414-0.018659 0.48047-0.0058594zm5.1191 0.0078125c0.2059 0.0265 0.40468 0.077112 0.61133 0.13867 0.53443 0.15975 1.1934 0.41255 2.0508 0.56055v8.6836c-0.56984-0.1524-1.1625-0.34205-1.8105-0.50391-0.97984-0.24476-2.0914-0.18478-3.1895 0.48633v-8.6992c0.70328-0.38552 1.2454-0.5963 1.6797-0.66016 0.23926-0.0352 0.4523-0.032159 0.6582-0.0058594z" fill="#363636"/>
</svg>
